!!!SOCIAL_FUNCTION:	songs with hunting dance
!!!PDT:	1956
!!!OTL: No_42_Cow_Creek_Hunting_Dance_Song_(i).krn
!!!LANG: Non-Tone
!!!LING_GROUP: Muskogean
!!!REG: Florida
**kern
*staff1
=1-
*clefF4
*k[b-]
*M3/4
2r
8.c\L
16A\Jk
=2
[2A\
8A\L]
8G\J
=3||
*M2/4
8.A\L
16F\Jk
4F\
=4||
*M3/4
2F\
8A\L
8G\J
=5||
*M2/4
4F\
4D\
=6||
*M3/4
2D\
8G\L
8F\J
=7||
*M2/4
8.D\L
16D\Jk
4D\
=8
2D\
=9
4D\
8A\L
8F\J
=10||
*M3/4
[2A\
8A\L]
8G\J
=11||
*M2/4
8.A\L
16F\Jk
4F\
=12
2F\
=13
8A\L
8G\J
4c\
=14
4.A\
8G\
=15
8.A\L
16F\Jk
4F\
=16||
*M3/4
2F\
8A\L
8G\J
=17||
*M2/4
4F\
4D\
=18||
*M3/4
2D\
8A\L
8G\J
=19||
*M2/4
8.D\L
16D\Jk
4D\
=20
2D\
==
*-
